ePapirus/24x24/actions/text-wiki.svg

<svg xmlns="http://www.w3.org/2000/svg" width="24" height="24" version="1.1">
 <defs>
  <style id="current-color-scheme" type="text/css">
   .ColorScheme-Text { color:#6e6e6e; } .ColorScheme-Highlight { color:#4285f4; }
  </style>
 </defs>
 <path style="fill:currentColor" class="ColorScheme-Text" d="m 14.491322,7.0002807 c -0.568651,-3.555e-4 -1.242151,0.00195 -1.656252,0.00445 l -0.04085,0.026905 v 0.2867404 c 0,0.03495 0.01515,0.059425 0.0454,0.08064 0.0308,0.022365 0.06161,0.03584 0.0953,0.03584 l 0.131595,0.013475 c 0.338621,0.013775 0.498061,0.1017601 0.544501,0.1568152 0.08074,0.09749 0.1186,0.2057302 -0.07714,0.6272505 L 12.363124,10.535251 11.305823,8.3981468 c -0.347335,-0.6830004 -0.43199,-0.8962507 0.09075,-0.9364007 l 0.208736,-0.026905 c 0.100485,0 0.149745,-0.034805 0.149745,-0.1030501 V 7.0316157 l -0.07714,-0.026905 c 0,0 -1.969653,0.00345 -2.854254,0.00445 l -0.04085,0.026905 v 0.3001804 c 0,0.0671 0.07166,0.085265 0.208735,0.1030451 0.489641,0.06366 0.477586,0.1138702 0.962001,1.0618016 0.0726,0.14222 0.285876,0.5690001 0.285876,0.5690001 l 1.102651,2.1415531 c 0,0 0.238315,0.520151 0.322181,0.703401 l -1.601802,3.154104 -0.09076,-0.02241 c 0,0 -2.487953,-5.1805071 -3.208154,-6.9130092 -0.07493,-0.1794999 -0.10891,-0.3122551 -0.10891,-0.3942652 0,-0.1760502 0.159221,-0.2690703 0.481001,-0.2822553 l 0.37663,-0.01792 c 0.09932,0 0.149746,-0.037915 0.149746,-0.1164901 V 7.0405457 l -0.0363,-0.03135 c 0,0 -2.978204,-0.00345 -3.593905,0 L 4,7.0405457 v 0.2957004 c 0,0.05391 0.06538,0.088135 0.204195,0.1030501 0.378121,0.020045 0.629101,0.08 0.748701,0.1792053 0.11907,0.1003601 0.245655,0.3530804 0.412936,0.7482013 0.904351,2.1448022 2.826053,5.9745072 3.761754,8.1540102 0.269506,0.595251 0.605201,0.688051 1.016452,-0.01792 0.443345,-0.811901 1.218801,-2.379603 1.846852,-3.660405 0.0091,-0.12425 0.0091,0.115106 0.12252,0.04033 0.586451,1.275302 1.294302,2.810504 1.688052,3.611105 0.304936,0.621101 0.650301,0.680851 1.002852,0.01792 0.921201,-2.022053 3.616554,-8.1050102 3.616554,-8.1050102 0.116745,-0.298786 0.27702,-0.527551 0.485536,-0.6944512 0.207935,-0.1657302 0.5287,-0.2588503 0.962001,-0.2777754 C 19.956695,7.4345062 20,7.3954562 20,7.3180211 V 7.0312807 l -0.0318,-0.031395 h -3.308004 l -0.04085,0.031395 v 0.2867404 c 0,0.033815 0.01515,0.059425 0.0454,0.08064 0.0308,0.022365 0.06161,0.03584 0.0953,0.03584 l 0.2768,0.013475 c 0.339206,0.013775 0.431411,0.080245 0.562701,0.1926552 0.13069,0.1152601 0.14703,0.3105004 0.0454,0.5869005 l -2.926854,6.8595092 -0.11344,-0.0314 -1.860452,-3.750005 c 0.002,-0.0035 0.0454,-0.08961 0.0454,-0.08961 l 1.520152,-2.8091042 c 0.177155,-0.296485 0.34908,-0.5622002 0.43562,-0.6855004 0.158571,-0.2253753 0.247361,-0.2666653 0.680651,-0.2867354 0.08828,0 0.131595,-0.037915 0.131595,-0.1164901 V 7.0359407 l -0.0318,-0.031395 c 0,0 -0.46597,-0.00395 -1.034601,-0.00445 z"/>
</svg>

<svg xmlns="http://www.w3.org/2000/svg" width="24" height="24" version="1.1">
 <defs>
  <style id="current-color-scheme" type="text/css">
   .ColorScheme-Text { color:#6e6e6e; } .ColorScheme-Highlight { color:#4285f4; }
  </style>
 </defs>
 <path style="fill:currentColor" class="ColorScheme-Text" d="M 12.835,7.0047 12.794,7.0317 V 7.3187 C 12.794,7.3527 12.809,7.3777 12.84,7.3987 12.87,7.4217 12.901,7.4347 12.935,7.4347 L 13.067,7.4477 C 13.405,7.4617 13.565,7.5497 13.611,7.6047 13.692,7.7027 13.73,7.8107 13.534,8.2327 L 12.363,10.535 11.306,8.3977 C 10.959,7.7147 10.874,7.5017 11.397,7.4617 L 11.605,7.4347 C 11.706,7.4347 11.755,7.3997 11.755,7.3317 V 7.0317 L 11.678,7.0047 8.8237,7.0087 8.7828,7.0357 V 7.3357 C 8.7828,7.4027 8.8545,7.4217 8.9915,7.4387 9.4812,7.5027 9.4691,7.5527 9.9535,8.5007 L 11.664,11.915 10.063,15.069 9.9717,15.047 6.7635,8.1337 C 6.6886,7.9537 6.6546,7.8217 6.6546,7.7397 6.6546,7.5637 6.8138,7.4707 7.1356,7.4567 L 7.5123,7.4387 C 7.6116,7.4387 7.662,7.4017 7.662,7.3227 V 7.0407 L 7.6257,7.0087 H 4.0318 L 4,7.0407 V 7.3357 C 4,7.3897 4.0654,7.4247 4.2042,7.4387 4.5823,7.4587 4.8333,7.5187 4.9529,7.6187 5.072,7.7187 5.3658,8.3667 5.3658,8.3667 L 9.1276,16.521 C 9.3971,17.116 9.7328,17.209 10.144,16.503 L 11.991,12.842 C 12,12.718 12.113,12.883 12.113,12.883 L 13.802,16.494 C 14.106,17.115 14.452,17.175 14.804,16.512 L 18.421,8.4067 C 18.538,8.1077 18.698,7.8787 18.906,7.7117 19.114,7.5467 19.435,7.4537 19.868,7.4347 19.957,7.4347 20,7.3957 20,7.3177 V 7.0307 L 19.968,6.9997 H 16.66 L 16.619,7.0307 V 7.3177 C 16.619,7.3517 16.634,7.3777 16.665,7.3987 16.696,7.4207 16.726,7.4347 16.76,7.4347 L 17.037,7.4477 C 17.376,7.4617 17.468,7.5277 17.6,7.6407 17.73,7.7557 17.747,7.9507 17.645,8.2277 L 14.718,15.087 14.605,15.056 12.744,11.306 14.745,7.7217 C 14.904,7.4957 14.993,7.4547 15.426,7.4347 15.514,7.4347 15.558,7.3967 15.558,7.3177 V 7.0357 L 15.526,7.0047 Z"/>
</svg>
